material/.icons/material/keyboard-off-outline.svg

<svg xmlns="http://www.w3.org/2000/svg" viewBox="0 0 24 24"><path d="M1 4.27l1.47 1.47A1.9 1.9 0 002 7v10a2 2 0 002 2h11.73l3 3L20 20.72 2.28 3 1 4.27M4 17V7.27l1 1V10h1.73L8 11.27V13h1.73l1 1H8v2h4.73l1 1H4m1-6h2v2H5v-2m12 0h2v2h-2v-2m2-1h-2V8h2v2m-5 1h2v2h-1.17l-.83-.83V11m-1-1h-1.17L11 9.17V8h2v2m9-3v10c0 .86-.55 1.58-1.3 1.87L18.83 17H20V7H8.83l-2-2H20a2 2 0 012 2m-6 3h-2V8h2v2z"/></svg>

<?xml version="1.0" encoding="UTF-8"?><!DOCTYPE svg PUBLIC "-//W3C//DTD SVG 1.1//EN" "http://www.w3.org/Graphics/SVG/1.1/DTD/svg11.dtd"><svg xmlns="http://www.w3.org/2000/svg" xmlns:xlink="http://www.w3.org/1999/xlink" version="1.1" id="mdi-keyboard-off-outline" width="24" height="24" viewBox="0 0 24 24"><path d="M1,4.27L2.47,5.74C2.18,6.08 2,6.5 2,7V17A2,2 0 0,0 4,19H15.73L18.73,22L20,20.72L2.28,3L1,4.27M4,17V7.27L5,8.27V10H6.73L8,11.27V13H9.73L10.73,14H8V16H12.73L13.73,17H4M5,11H7V13H5V11M17,11H19V13H17V11M19,10H17V8H19V10M14,11H16V13H14.83L14,12.17V11M13,10H11.83L11,9.17V8H13V10M22,7V17C22,17.86 21.45,18.58 20.7,18.87L18.83,17H20V7H8.83L6.83,5H20A2,2 0 0,1 22,7M16,10H14V8H16V10Z" /></svg>
